build/img/your-logo.svg

<?xml version="1.0" encoding="UTF-8"?> <svg xmlns="http://www.w3.org/2000/svg" width="300" height="80" viewBox="0 0 300 80" fill="none"> <rect width="300" height="80" rx="5" fill="#F7F7F7"></rect> <path d="M26.08 58H40.048C47.152 58 53.056 55.168 53.056 47.68C53.056 43.072 50.704 40.816 47.824 39.52C49.888 38.224 51.712 35.344 51.712 32.08C51.712 24.928 45.52 23.2 39.184 23.2H26.08V58ZM32.176 42.4H39.952C44.608 42.4 46.768 44.08 46.768 47.68C46.768 51.136 44.656 53.104 40.288 53.104H32.176V42.4ZM32.176 28.096H39.76C43.216 28.096 45.52 29.68 45.52 32.752C45.52 36.208 43.36 37.744 39.76 37.744H32.176V28.096ZM74.3875 47.824C74.3875 52.24 71.8915 54.352 67.6675 54.352C64.7875 54.352 62.9155 53.008 62.9155 50.752C62.9155 47.824 66.2275 46.624 74.3875 45.856V47.824ZM66.4195 58.624C70.2595 58.624 73.2355 57.328 74.9155 54.496C75.0595 56.272 75.2035 56.896 75.3955 58H80.6275C80.0995 55.84 79.8595 52.432 79.8595 49.168C79.8595 46.816 79.9555 43.744 79.9555 42.496C80.0995 34.24 75.2515 31.408 69.0595 31.408C62.8195 31.408 58.4515 35.056 58.0675 40.288H63.6835C63.8275 37.168 65.9875 35.632 68.8675 35.632C71.7475 35.632 74.2435 36.976 74.2435 41.392V41.872C64.8355 42.88 56.8675 44.416 56.8675 50.896C56.8675 55.6 60.8035 58.624 66.4195 58.624ZM120.196 32.176H114.484V53.488H105.94V32.176H100.228V53.488H91.6836V32.176H85.9716V58H120.196V32.176ZM150.216 46.72C150.744 38.08 145.752 31.6 137.832 31.6C130.488 31.6 125.16 37.12 125.16 44.896C125.16 52.336 129.912 58.624 138.216 58.624C144.84 58.624 148.776 54.4 149.928 50.272H144.312C143.304 52.72 141 53.872 137.976 53.872C134.712 53.872 131.352 51.52 130.968 46.72H150.216ZM137.832 36.064C141.192 36.064 144.264 38.512 144.408 42.544H130.968C131.496 37.696 135.144 36.064 137.832 36.064ZM193.917 58V23.2H171.021L170.781 32.752C170.541 44.032 169.148 52.912 164.781 52.912H164.109V58H165.549C172.989 58 176.157 49.552 176.685 35.776L176.973 28.288H187.821V58H193.917ZM205.408 45.136C205.408 39.184 208.576 36.256 212.224 36.256C215.872 36.256 219.04 39.184 219.04 45.136C219.04 51.088 215.872 53.968 212.224 53.968C208.576 53.968 205.408 51.088 205.408 45.136ZM212.224 31.6C205.936 31.6 199.504 35.824 199.504 45.136C199.504 54.496 205.936 58.624 212.224 58.624C218.512 58.624 224.944 54.496 224.944 45.136C224.944 35.824 218.512 31.6 212.224 31.6ZM247.398 36.688V32.176H229.878V58H235.59V36.688H247.398ZM255.048 45.136C255.048 39.184 258.216 36.256 261.864 36.256C265.512 36.256 268.68 39.184 268.68 45.136C268.68 51.088 265.512 53.968 261.864 53.968C258.216 53.968 255.048 51.088 255.048 45.136ZM261.864 31.6C255.576 31.6 249.144 35.824 249.144 45.136C249.144 54.496 255.576 58.624 261.864 58.624C268.152 58.624 274.584 54.496 274.584 45.136C274.584 35.824 268.152 31.6 261.864 31.6Z" fill="#CBCBCB"></path> </svg>

<svg xmlns="http://www.w3.org/2000/svg" width="300" height="80" viewBox="0 0 300 80" fill="none"><rect width="300" height="80" rx="5" fill="#F7F7F7"/><path d="M26.08 58h13.968c7.104 0 13.008-2.832 13.008-10.32 0-4.608-2.352-6.864-5.232-8.16 2.064-1.296 3.888-4.176 3.888-7.44 0-7.152-6.192-8.88-12.528-8.88H26.08V58zm6.096-15.6h7.776c4.656 0 6.816 1.68 6.816 5.28 0 3.456-2.112 5.424-6.48 5.424h-8.112V42.4zm0-14.304h7.584c3.456 0 5.76 1.584 5.76 4.656 0 3.456-2.16 4.992-5.76 4.992h-7.584v-9.648zm42.212 19.728c0 4.416-2.497 6.528-6.72 6.528-2.88 0-4.753-1.344-4.753-3.6 0-2.928 3.313-4.128 11.473-4.896v1.968zm-7.969 10.8c3.84 0 6.817-1.296 8.496-4.128.144 1.776.288 2.4.48 3.504h5.233c-.528-2.16-.769-5.568-.769-8.832 0-2.352.097-5.424.097-6.672.144-8.256-4.705-11.088-10.897-11.088-6.24 0-10.607 3.648-10.991 8.88h5.616c.144-3.12 2.303-4.656 5.184-4.656 2.88 0 5.376 1.344 5.376 5.76v.48c-9.409 1.008-17.377 2.544-17.377 9.024 0 4.704 3.937 7.728 9.553 7.728zm53.777-26.448h-5.712v21.312h-8.544V32.176h-5.712v21.312h-8.544V32.176h-5.712V58h34.224V32.176zm30.02 14.544c.528-8.64-4.464-15.12-12.384-15.12-7.344 0-12.672 5.52-12.672 13.296 0 7.44 4.752 13.728 13.056 13.728 6.624 0 10.56-4.224 11.712-8.352h-5.616c-1.008 2.448-3.312 3.6-6.336 3.6-3.264 0-6.624-2.352-7.008-7.152h19.248zm-12.384-10.656c3.36 0 6.432 2.448 6.576 6.48h-13.44c.528-4.848 4.176-6.48 6.864-6.48zM193.917 58V23.2h-22.896l-.24 9.552c-.24 11.28-1.633 20.16-6 20.16h-.672V58h1.44c7.44 0 10.608-8.448 11.136-22.224l.288-7.488h10.848V58h6.096zm11.491-12.864c0-5.952 3.168-8.88 6.816-8.88 3.648 0 6.816 2.928 6.816 8.88 0 5.952-3.168 8.832-6.816 8.832-3.648 0-6.816-2.88-6.816-8.832zm6.816-13.536c-6.288 0-12.72 4.224-12.72 13.536 0 9.36 6.432 13.488 12.72 13.488s12.72-4.128 12.72-13.488c0-9.312-6.432-13.536-12.72-13.536zm35.174 5.088v-4.512h-17.52V58h5.712V36.688h11.808zm7.65 8.448c0-5.952 3.168-8.88 6.816-8.88 3.648 0 6.816 2.928 6.816 8.88 0 5.952-3.168 8.832-6.816 8.832-3.648 0-6.816-2.88-6.816-8.832zm6.816-13.536c-6.288 0-12.72 4.224-12.72 13.536 0 9.36 6.432 13.488 12.72 13.488s12.72-4.128 12.72-13.488c0-9.312-6.432-13.536-12.72-13.536z" fill="#CBCBCB"/></svg>
